X: 1
T: Boston Delight
R: reel
Z: 2011 John Chambers <jc:trillian.mit.edu>
S: printed MS of unknown origin
M: 2/4
L: 1/16
K: G
"A"[|] D2 |\
"G"G2GG G3A | "G"B2Bc B3c | "G"d2Bd "D7"c2Ac | "G"B2GB "D"AFDD |
"G"G2GG G3A | "G"B2Bc B3c | "G"dgfe d2Bd | "D7"cBAF "G"G2 :|
"B"|: B2 |\
"G"d2de dBGB | "D"A2AB AFDD | "G"d2de dBGB | "D"A2AB AFDD |
"G"G2GG G3A | "G"B2Bc B3c | "G"dgfe d2Bd | "D7"cBAF "G"G2 :|
